X:1
T:A Little While
T:A Little While
T:Ira David Sankey
T:Jane Fox Crewdson, 1864
T:Public Domain Courtesy of the Cyber Hymnal™
T:Public Domain Courtesy of the Cyber Hymnal™
C:Ira David Sankey
Z:Public Domain
Z:Courtesy of the Cyber Hymnal™
%%score ( 1 2 ) ( 3 4 )
L:1/8
Q:1/4=90
M:4/4
K:Ab
V:1 treble 
V:2 treble 
V:3 bass 
V:4 bass 
V:1
 [CE][A,C][CE] | [Ec]3 [Ec] [DB][CA][DF][DA] | [DF]2 [CE]2 z E[EG][EB] | %3
w: 1.~Oh, for the|peace that flow- eth as a|riv- er, Mak- ing life’s|
w: 2.~“A lit- tle|while” for pa- tient vi- gil|keep- ing, To face the|
w: 3.~“A lit- tle|while” the earth- en pitch- er|tak- ing, To way- side|
w: 4.~“A lit- tle|while” to keep the oil from|fail- ing, “A lit- tle|
 [Gd]3 [Gd] [Gd][G=d][Ge][EB] | [Ec]4 z [CE][A,C][CE] | [Ec]3 [Ec] [DB][CA][DF][DA] | %6
w: des- ert plac- es bloom and|smile; Oh, for the|faith to grasp “Heav’n’s bright for-|
w: storm and wres- tle with the|strong; “A lit- tle|while” to sow the seed with|
w: brooks, from far off fount- ains|fed; Then the parched|lip its thirst for- ev- er|
w: while” faith’s flick- ’ring lamp to|trim; And then the|Bride- groom’s com- ing foot- steps|
 [DF]2 [CE]2 z [CE][CA][Ec] | [Ae][Ec][CA][FB] ([Ec][CA]) [DB]2 |"^riten." A4 x |] %9
w: ev- er,” A- mid the|sha- dows of earth’s “lit- * tle|while.”|
w: weep- ing, Then bind the|sheaves and sing the har- * vest|song.|
w: slak- ing Be- side the|full- ness of the Fount- * ain-|head.|
w: hail- ing, We’ll haste to|meet Him with the brid- * al|hymn.|
V:2
 x3 | x8 | x5 E x2 | x8 | x8 | x8 | x8 | x8 | (C2 D2 C) |] %9
V:3
 [A,,A,][A,,A,][A,,A,] | [A,,A,]3 [A,,A,] [A,,A,][A,,A,][D,A,][F,A,] | A,2 [A,,A,]2 z E,E,[E,G,] | %3
 [E,B,]3 [E,B,] [E,B,][E,B,][E,B,][E,G,] | [A,,A,]4 z [A,,A,][A,,E,][A,,A,] | %5
 [A,,A,]3 [A,,A,] [A,,A,][A,,A,][D,A,][F,A,] | A,2 [A,,A,]2 z [A,,A,][A,,A,][A,,A,] | %7
 [A,,C][A,,A,][F,A,][D,A,] [E,A,]2 [E,G,]2 | (A,2 F,2 E,) |] %9
V:4
 x3 | x8 | A,2 x E, E, x3 | x8 | x8 | x8 | A,2 x6 | x8 | A,,4 x |] %9

